assets/img/social/tw.svg

<svg width="26" height="22" viewBox="0 0 26 22" fill="none" xmlns="http://www.w3.org/2000/svg">
<path d="M25.1288 3.33673C24.6512 4.16011 23.9645 4.83101 23.2181 5.44092C22.8599 5.71538 22.7703 6.02034 22.7703 6.47777C22.5613 12.2719 20.2027 16.8768 15.1871 19.6823C10.5894 22.2745 5.81256 22.183 1.1253 19.7433C0.856605 19.5909 0.58791 19.4689 0.319214 19.2554C3.03603 19.4079 5.48416 18.737 7.75315 16.9987C5.42445 16.7548 3.84212 15.5654 2.97632 13.3698C3.7227 13.3698 4.40937 13.4917 5.15575 13.2173C2.64792 12.3634 1.30443 10.7167 1.1253 8.03304C1.87168 8.27701 2.5285 8.61246 3.42415 8.61246C1.96125 7.42313 1.18501 5.98984 1.18501 4.16011C1.18501 3.27574 1.394 2.42186 1.87168 1.62898C3.39429 3.39772 5.09604 4.80051 7.12619 5.77637C8.73837 6.53876 10.4103 6.9352 12.1717 7.11818C12.5897 7.17917 12.4703 6.90471 12.4404 6.69124C12.3508 5.16646 12.6494 3.79416 13.6048 2.57434C15.3961 0.348163 18.5906 -0.0482793 20.7999 1.75096C21.3074 2.1779 21.7552 2.26938 22.3225 2.05591C23.039 1.81195 23.7555 1.50699 24.5616 1.14105C24.2332 2.33037 23.5465 3.06227 22.7404 3.73317C23.0987 3.82466 23.0987 3.82466 23.9048 3.61119C24.2929 3.48921 24.681 3.36722 25.099 3.24524C25.099 3.30623 25.1288 3.33673 25.1288 3.33673Z" fill="#FDFEFE"/>
<path d="M25.0691 3.24524C25.1288 3.24524 25.1587 3.24524 25.2184 3.24524C25.1886 3.27573 25.1587 3.30623 25.1587 3.33673C25.1288 3.33673 25.099 3.30623 25.0691 3.24524Z" fill="#FDFEFE"/>
</svg>

<svg width="26" height="22" fill="none" xmlns="http://www.w3.org/2000/svg"><path d="M25.129 3.337c-.478.823-1.165 1.494-1.91 2.104-.36.274-.449.58-.449 1.037-.209 5.794-2.567 10.399-7.583 13.204-4.598 2.593-9.374 2.501-14.062.061-.268-.152-.537-.274-.806-.488 2.717.153 5.165-.518 7.434-2.256-2.329-.244-3.91-1.434-4.777-3.63.747 0 1.433.123 2.18-.152-2.508-.854-3.852-2.5-4.03-5.184.746.244 1.403.58 2.298.58C1.961 7.422 1.185 5.99 1.185 4.16c0-.884.209-1.738.687-2.531 1.522 1.769 3.224 3.172 5.254 4.147 1.612.763 3.284 1.16 5.046 1.342.418.061.298-.213.268-.427-.09-1.525.21-2.897 1.165-4.117C15.396.348 18.59-.048 20.8 1.751c.507.427.955.518 1.523.305.716-.244 1.433-.549 2.239-.915-.329 1.19-1.015 1.921-1.822 2.592.359.092.359.092 1.165-.122.388-.122.776-.244 1.194-.366 0 .061.03.092.03.092z" fill="#FDFEFE"/><path d="M25.07 3.245h.148c-.03.03-.06.061-.06.092-.03 0-.059-.03-.089-.092z" fill="#FDFEFE"/></svg>
